src/gui/emoticons/tear.svg

<svg xmlns="http://www.w3.org/2000/svg" xmlns:xlink="http://www.w3.org/1999/xlink" width="16pt" height="16pt" version="1.1" viewBox="0 0 16 16"><defs><linearGradient id="linear0" x1="64" x2="64" y1="19.742" y2="107.73" gradientTransform="matrix(0.125,0,0,0.125,0,0)" gradientUnits="userSpaceOnUse"><stop offset=".5" style="stop-color:#fee133;stop-opacity:1"/><stop offset=".612" style="stop-color:#fede32;stop-opacity:1"/><stop offset=".708" style="stop-color:#fcd32f;stop-opacity:1"/><stop offset=".797" style="stop-color:#fac12b;stop-opacity:1"/><stop offset=".883" style="stop-color:#f7a924;stop-opacity:1"/><stop offset=".9" style="stop-color:#f6a323;stop-opacity:1"/></linearGradient></defs><g id="surface1"><path style="stroke:none;fill-rule:nonzero;fill:url(#linear0)" d="M 8 14.988281 C 4.507812 14.988281 0.75 12.804688 0.75 8.003906 C 0.75 3.203125 4.507812 1.015625 8 1.015625 C 9.933594 1.015625 11.726562 1.65625 13.046875 2.820312 C 14.488281 4.09375 15.25 5.886719 15.25 8.003906 C 15.25 10.109375 14.488281 11.898438 13.046875 13.175781 C 11.722656 14.347656 9.929688 14.988281 8 14.988281 Z M 8 14.988281"/><path style="stroke:none;fill-rule:nonzero;fill:#eb8f00;fill-opacity:1" d="M 8 1.265625 C 9.875 1.265625 11.609375 1.886719 12.878906 3.007812 C 14.265625 4.234375 15 5.957031 15 8.003906 C 15 10.035156 14.265625 11.761719 12.878906 12.988281 C 11.601562 14.117188 9.871094 14.738281 8 14.738281 C 6.121094 14.738281 4.386719 14.125 3.121094 13.011719 C 1.734375 11.792969 1 10.0625 1 8.003906 C 1 5.9375 1.734375 4.203125 3.121094 2.984375 C 4.382812 1.875 6.117188 1.265625 8 1.265625 M 8 0.765625 C 4.105469 0.765625 0.5 3.265625 0.5 8.003906 C 0.5 12.710938 4.105469 15.238281 8 15.238281 C 11.894531 15.238281 15.5 12.648438 15.5 8.003906 C 15.5 3.332031 11.894531 0.765625 8 0.765625 Z M 8 0.765625"/><path style="stroke:none;fill-rule:nonzero;fill:#242424;fill-opacity:1" d="M 6.957031 12.914062 C 6.648438 12.914062 6.359375 12.738281 6.207031 12.457031 C 6.058594 12.175781 6.074219 11.847656 6.25 11.578125 C 6.640625 10.980469 7.246094 10.664062 8 10.664062 C 8.753906 10.664062 9.359375 10.980469 9.75 11.578125 C 9.929688 11.847656 9.945312 12.175781 9.792969 12.457031 C 9.640625 12.738281 9.351562 12.914062 9.042969 12.914062 C 8.945312 12.914062 8.847656 12.898438 8.753906 12.863281 C 8.507812 12.777344 8.253906 12.734375 8 12.734375 C 7.746094 12.734375 7.492188 12.777344 7.246094 12.863281 C 7.152344 12.898438 7.054688 12.914062 6.957031 12.914062 Z M 6.957031 12.914062"/><path style="stroke:none;fill-rule:nonzero;fill:#eb8f00;fill-opacity:1" d="M 9.894531 3.902344 C 9.890625 3.902344 9.886719 3.898438 9.878906 3.898438 C 9.617188 3.8125 9.664062 3.414062 9.964844 3.449219 C 10.203125 3.480469 10.441406 3.546875 10.671875 3.65625 C 11.300781 3.945312 11.773438 4.472656 11.992188 5.042969 C 12.101562 5.328125 11.71875 5.46875 11.578125 5.234375 C 11.203125 4.640625 10.609375 4.148438 9.894531 3.902344 Z M 9.894531 3.902344"/><path style="stroke:none;fill-rule:nonzero;fill:#eb8f00;fill-opacity:1" d="M 6.105469 3.902344 C 6.109375 3.902344 6.113281 3.898438 6.121094 3.898438 C 6.382812 3.8125 6.335938 3.414062 6.035156 3.449219 C 5.796875 3.480469 5.558594 3.546875 5.328125 3.65625 C 4.699219 3.945312 4.226562 4.472656 4.007812 5.042969 C 3.898438 5.328125 4.28125 5.46875 4.421875 5.234375 C 4.796875 4.640625 5.390625 4.148438 6.105469 3.902344 Z M 6.105469 3.902344"/><path style="stroke:none;fill-rule:nonzero;fill:#5f7aff;fill-opacity:1" d="M 13.269531 13.058594 C 12.171875 13.058594 11.621094 12.234375 11.085938 11.433594 C 10.609375 10.71875 10.113281 9.984375 9.246094 9.953125 C 9.902344 9.398438 10.640625 9.023438 11.242188 8.945312 C 11.507812 8.910156 11.765625 8.890625 12.011719 8.890625 C 12.945312 8.890625 13.742188 9.144531 14.320312 9.621094 C 14.808594 10.023438 15.113281 10.566406 15.175781 11.148438 C 15.253906 11.847656 14.957031 12.75 13.867188 12.988281 C 13.65625 13.039062 13.453125 13.058594 13.269531 13.058594 Z M 13.269531 13.058594"/><path style="stroke:none;fill-rule:nonzero;fill:#4864ed;fill-opacity:1" d="M 12.011719 9.144531 C 13.871094 9.144531 14.816406 10.164062 14.925781 11.175781 C 14.992188 11.773438 14.738281 12.542969 13.8125 12.746094 C 13.621094 12.789062 13.4375 12.8125 13.269531 12.8125 C 12.371094 12.8125 11.921875 12.238281 11.292969 11.296875 C 10.90625 10.71875 10.480469 10.082031 9.828125 9.824219 C 10.328125 9.480469 10.84375 9.25 11.273438 9.195312 C 11.527344 9.160156 11.773438 9.144531 12.011719 9.144531 M 12.011719 8.644531 C 11.757812 8.644531 11.488281 8.660156 11.207031 8.699219 C 10.417969 8.800781 9.582031 9.324219 8.988281 9.847656 C 8.847656 9.972656 8.90625 10.210938 9.085938 10.210938 L 9.101562 10.210938 C 9.136719 10.207031 9.167969 10.207031 9.199219 10.207031 C 10.859375 10.207031 10.988281 13.3125 13.269531 13.3125 C 13.46875 13.3125 13.6875 13.289062 13.921875 13.234375 C 16.417969 12.683594 15.859375 8.644531 12.011719 8.644531 Z M 12.011719 8.644531"/><path style="stroke:none;fill-rule:nonzero;fill:#242424;fill-opacity:1" d="M 6.203125 6.835938 L 6.175781 6.863281 C 6.164062 6.875 6.132812 6.910156 6.113281 6.925781 C 6.089844 6.945312 6.058594 6.96875 6.027344 6.996094 C 5.988281 7.023438 5.949219 7.054688 5.902344 7.085938 C 5.859375 7.113281 5.808594 7.144531 5.753906 7.171875 C 5.703125 7.199219 5.640625 7.21875 5.582031 7.242188 C 5.523438 7.261719 5.457031 7.273438 5.394531 7.289062 C 5.332031 7.296875 5.265625 7.300781 5.199219 7.300781 L 5.214844 7.300781 L 5.140625 7.300781 C 5.105469 7.300781 5.101562 7.296875 5.089844 7.296875 C 5.070312 7.296875 5.03125 7.292969 5 7.285156 C 4.9375 7.273438 4.875 7.261719 4.8125 7.238281 C 4.753906 7.21875 4.695312 7.199219 4.640625 7.167969 C 4.585938 7.140625 4.539062 7.113281 4.492188 7.082031 C 4.402344 7.023438 4.328125 6.964844 4.277344 6.917969 C 4.230469 6.875 4.199219 6.847656 4.199219 6.847656 L 4.167969 6.816406 C 4.015625 6.667969 3.761719 6.660156 3.597656 6.792969 C 3.46875 6.898438 3.433594 7.0625 3.5 7.199219 L 3.519531 7.238281 C 3.53125 7.261719 3.546875 7.296875 3.574219 7.34375 C 3.625 7.429688 3.710938 7.554688 3.84375 7.6875 C 3.914062 7.753906 3.992188 7.820312 4.082031 7.882812 C 4.175781 7.949219 4.28125 8.007812 4.398438 8.058594 C 4.515625 8.109375 4.644531 8.152344 4.777344 8.179688 C 4.847656 8.191406 4.910156 8.203125 4.996094 8.210938 C 5.035156 8.214844 5.078125 8.21875 5.101562 8.222656 L 5.195312 8.226562 C 5.335938 8.222656 5.476562 8.207031 5.613281 8.179688 C 5.75 8.152344 5.875 8.109375 5.992188 8.058594 C 6.109375 8.007812 6.21875 7.949219 6.308594 7.886719 C 6.402344 7.824219 6.480469 7.753906 6.546875 7.6875 C 6.617188 7.625 6.671875 7.558594 6.714844 7.5 C 6.734375 7.46875 6.757812 7.441406 6.773438 7.417969 C 6.792969 7.386719 6.808594 7.359375 6.824219 7.335938 C 6.859375 7.285156 6.859375 7.265625 6.875 7.242188 C 6.882812 7.222656 6.886719 7.210938 6.886719 7.210938 C 6.972656 7.023438 6.871094 6.8125 6.660156 6.738281 C 6.496094 6.679688 6.3125 6.722656 6.203125 6.835938 Z M 6.203125 6.835938"/><path style="stroke:none;fill-rule:nonzero;fill:#242424;fill-opacity:1" d="M 11.8125 6.835938 L 11.789062 6.863281 C 11.773438 6.875 11.742188 6.910156 11.726562 6.925781 C 11.703125 6.945312 11.671875 6.96875 11.640625 6.996094 C 11.601562 7.023438 11.5625 7.054688 11.515625 7.085938 C 11.46875 7.113281 11.421875 7.144531 11.367188 7.171875 C 11.3125 7.199219 11.253906 7.21875 11.195312 7.242188 C 11.132812 7.261719 11.070312 7.273438 11.007812 7.289062 C 10.941406 7.296875 10.875 7.300781 10.808594 7.300781 L 10.828125 7.300781 L 10.75 7.300781 C 10.71875 7.300781 10.710938 7.296875 10.699219 7.296875 C 10.679688 7.296875 10.644531 7.292969 10.613281 7.285156 C 10.546875 7.273438 10.484375 7.261719 10.425781 7.238281 C 10.367188 7.21875 10.304688 7.199219 10.253906 7.167969 C 10.199219 7.140625 10.148438 7.113281 10.105469 7.082031 C 10.015625 7.023438 9.941406 6.964844 9.890625 6.917969 C 9.839844 6.875 9.8125 6.847656 9.8125 6.847656 L 9.78125 6.816406 C 9.628906 6.667969 9.375 6.660156 9.210938 6.792969 C 9.078125 6.898438 9.046875 7.0625 9.113281 7.199219 L 9.132812 7.238281 C 9.144531 7.261719 9.160156 7.296875 9.1875 7.34375 C 9.238281 7.429688 9.324219 7.554688 9.457031 7.6875 C 9.523438 7.753906 9.605469 7.820312 9.699219 7.882812 C 9.789062 7.949219 9.894531 8.007812 10.011719 8.058594 C 10.128906 8.109375 10.257812 8.152344 10.390625 8.179688 C 10.460938 8.191406 10.523438 8.203125 10.609375 8.210938 C 10.648438 8.214844 10.695312 8.21875 10.714844 8.222656 L 10.808594 8.226562 C 10.953125 8.222656 11.089844 8.207031 11.226562 8.179688 C 11.363281 8.152344 11.488281 8.109375 11.609375 8.058594 C 11.722656 8.007812 11.832031 7.949219 11.921875 7.886719 C 12.015625 7.824219 12.09375 7.753906 12.160156 7.6875 C 12.230469 7.625 12.28125 7.558594 12.328125 7.5 C 12.347656 7.46875 12.367188 7.441406 12.386719 7.417969 C 12.40625 7.386719 12.421875 7.359375 12.4375 7.335938 C 12.46875 7.285156 12.472656 7.265625 12.484375 7.242188 C 12.492188 7.222656 12.5 7.210938 12.5 7.210938 C 12.582031 7.023438 12.480469 6.8125 12.273438 6.738281 C 12.109375 6.679688 11.925781 6.722656 11.8125 6.835938 Z M 11.8125 6.835938"/></g></svg>

<svg xmlns="http://www.w3.org/2000/svg" width="16pt" height="16pt" viewBox="0 0 16 16"><defs><linearGradient id="a" x1="64" x2="64" y1="19.742" y2="107.73" gradientTransform="scale(.125)" gradientUnits="userSpaceOnUse"><stop offset=".5" style="stop-color:#fee133;stop-opacity:1"/><stop offset=".612" style="stop-color:#fede32;stop-opacity:1"/><stop offset=".708" style="stop-color:#fcd32f;stop-opacity:1"/><stop offset=".797" style="stop-color:#fac12b;stop-opacity:1"/><stop offset=".883" style="stop-color:#f7a924;stop-opacity:1"/><stop offset=".9" style="stop-color:#f6a323;stop-opacity:1"/></linearGradient></defs><path d="M8 14.988c-3.492 0-7.25-2.183-7.25-6.984 0-4.8 3.758-6.988 7.25-6.988 1.934 0 3.727.64 5.047 1.804 1.441 1.274 2.203 3.067 2.203 5.184 0 2.105-.762 3.894-2.203 5.172C11.723 14.348 9.93 14.988 8 14.988m0 0" style="stroke:none;fill-rule:nonzero;fill:url(#a)"/><path d="M8 1.266c1.875 0 3.61.62 4.879 1.742C14.266 4.234 15 5.957 15 8.004c0 2.031-.734 3.758-2.121 4.984-1.277 1.13-3.008 1.75-4.879 1.75-1.879 0-3.613-.613-4.879-1.726C1.734 11.793 1 10.062 1 8.004c0-2.066.734-3.8 2.121-5.02C4.383 1.875 6.117 1.266 8 1.266m0-.5C4.105.766.5 3.266.5 8.004c0 4.707 3.605 7.234 7.5 7.234s7.5-2.59 7.5-7.234C15.5 3.332 11.895.766 8 .766m0 0" style="stroke:none;fill-rule:nonzero;fill:#eb8f00;fill-opacity:1"/><path d="M6.957 12.914a.86.86 0 0 1-.707-1.336c.39-.598.996-.914 1.75-.914s1.36.316 1.75.914a.84.84 0 0 1 .043.879.86.86 0 0 1-.75.457.8.8 0 0 1-.29-.05 2.28 2.28 0 0 0-1.507 0 .8.8 0 0 1-.289.05m0 0" style="stroke:none;fill-rule:nonzero;fill:#242424;fill-opacity:1"/><path d="M9.895 3.902c-.004 0-.008-.004-.016-.004-.262-.086-.215-.484.086-.449q.359.045.707.207c.629.29 1.101.817 1.32 1.387.11.285-.273.426-.414.191a3.27 3.27 0 0 0-1.683-1.332M6.105 3.902c.004 0 .008-.004.016-.004.262-.086.215-.484-.086-.449a2.579 2.579 0 0 0-2.027 1.594c-.11.285.273.426.414.191a3.27 3.27 0 0 1 1.683-1.332m0 0" style="stroke:none;fill-rule:nonzero;fill:#eb8f00;fill-opacity:1"/><path d="M13.27 13.059c-1.098 0-1.649-.825-2.184-1.625-.477-.715-.973-1.45-1.84-1.48.656-.556 1.395-.93 1.996-1.009q.4-.053.77-.054c.933 0 1.73.254 2.308.73.489.402.793.945.856 1.527.078.7-.219 1.602-1.309 1.84-.21.051-.414.07-.597.07m0 0" style="stroke:none;fill-rule:nonzero;fill:#5f7aff;fill-opacity:1"/><path d="M12.012 9.145c1.86 0 2.804 1.02 2.914 2.03.066.598-.188 1.368-1.114 1.571a2.5 2.5 0 0 1-.542.066c-.899 0-1.348-.574-1.977-1.515-.387-.578-.813-1.215-1.465-1.473.5-.344 1.016-.574 1.445-.629q.38-.051.739-.05m0-.5c-.254 0-.524.015-.805.054-.789.102-1.625.625-2.219 1.149-.14.125-.082.363.098.363h.016q.052-.005.097-.004c1.66 0 1.79 3.105 4.07 3.105.2 0 .418-.023.653-.078 2.496-.55 1.937-4.59-1.91-4.59m0 0" style="stroke:none;fill-rule:nonzero;fill:#4864ed;fill-opacity:1"/><path d="m6.203 6.836-.027.027c-.012.012-.043.047-.063.063l-.086.07q-.056.042-.125.09a2 2 0 0 1-.148.086c-.05.027-.113.047-.172.07-.059.02-.125.031-.187.047a2 2 0 0 1-.196.012h.016-.074c-.036 0-.04-.004-.051-.004a1.097 1.097 0 0 1-.277-.059 1.345 1.345 0 0 1-.32-.156 2 2 0 0 1-.216-.164l-.078-.07-.031-.032a.44.44 0 0 0-.57-.023.33.33 0 0 0-.098.406l.02.04q.015.034.054.105a1.75 1.75 0 0 0 .824.715c.118.05.247.093.38.12.07.012.132.024.218.032.04.004.082.008.106.012l.093.004c.14-.004.282-.02.418-.047a2 2 0 0 0 .38-.121c.116-.051.226-.11.316-.172.093-.063.171-.133.238-.2.07-.062.125-.128.168-.187.02-.031.043-.059.058-.082l.051-.082c.035-.05.035-.07.051-.094l.012-.031c.086-.188-.016-.399-.227-.473a.44.44 0 0 0-.457.098M11.813 6.836l-.024.027c-.016.012-.047.047-.062.063q-.038.03-.086.07-.058.042-.125.09c-.047.027-.094.059-.149.086s-.113.047-.172.07c-.062.02-.125.031-.187.047a2 2 0 0 1-.2.012h.02-.078c-.031 0-.04-.004-.05-.004a.4.4 0 0 1-.087-.012 1 1 0 0 1-.187-.047c-.059-.02-.121-.039-.172-.07a1.676 1.676 0 0 1-.363-.25c-.051-.043-.079-.07-.079-.07l-.03-.032a.44.44 0 0 0-.571-.023.33.33 0 0 0-.098.406l.02.04c.012.023.027.058.055.105.05.086.136.21.269.343q.1.101.242.196.136.1.313.176c.117.05.246.093.379.12.07.012.132.024.218.032.04.004.086.008.106.012l.094.004c.144-.004.28-.02.418-.047a2 2 0 0 0 .695-.293c.094-.063.172-.133.238-.2.07-.062.121-.128.168-.187a1 1 0 0 1 .059-.082l.05-.082c.032-.05.036-.07.047-.094.008-.02.016-.031.016-.031.082-.188-.02-.399-.227-.473a.45.45 0 0 0-.46.098m0 0" style="stroke:none;fill-rule:nonzero;fill:#242424;fill-opacity:1"/></svg>
